; generated by PrusaSlicer 2.3.0+linux-x64 on 2021-02-11 at 21:22:07 UTC

; 

; external perimeters extrusion width = 0.45mm
; perimeters extrusion width = 0.45mm
; infill extrusion width = 0.45mm
; solid infill extrusion width = 0.45mm
; top infill extrusion width = 0.40mm
; first layer extrusion width = 0.42mm

; external perimeters extrusion width = 0.45mm
; perimeters extrusion width = 0.45mm
; infill extrusion width = 0.45mm
; solid infill extrusion width = 0.45mm
; top infill extrusion width = 0.40mm
; first layer extrusion width = 0.42mm

; external perimeters extrusion width = 0.45mm
; perimeters extrusion width = 0.45mm
; infill extrusion width = 0.45mm
; solid infill extrusion width = 0.45mm
; top infill extrusion width = 0.40mm
; first layer extrusion width = 0.42mm

M73 P0 R37
M73 Q0 S37
M201 X1000 Y1000 Z200 E8000 ; sets maximum accelerations, mm/sec^2
M203 X200 Y200 Z12 E120 ; sets maximum feedrates, mm/sec
M204 P1250 R1250 T1250 ; sets acceleration (P, T) and retract acceleration (R), mm/sec^2
M205 X8.00 Y8.00 Z0.40 E4.50 ; sets the jerk limits, mm/sec
M205 S0 T0 ; sets the minimum extruding and travel feed rate, mm/sec
M107
;TYPE:Custom
M862.3 P "MK3SMMU2S" ; printer model check
M862.1 P0.4 ; nozzle diameter check
M115 U3.9.2 ; tell printer latest fw version
G90 ; use absolute coordinates
M83 ; extruder relative mode
M104 S230 ; set extruder temp
M140 S85 ; set bed temp
M190 S85 ; wait for bed temp
M109 S230 ; wait for extruder temp
G28 W ; home all without mesh bed level
G80 ; mesh bed leveling

; Send the filament type to the MMU2.0 unit.
; E stands for extruder number, F stands for filament type (0: default; 1:flex; 2: PVA)
M403 E0 F0
M403 E1 F0
M403 E2 F0
M403 E3 F0
M403 E4 F0


;go outside print area
G1 Y-3.0 F1000.0
M73 P0 R36
G1 Z0.4 F1000.0
; select extruder
T3
; initial load
G1 X55.0 E29.0 F1073.0
M73 P2 R36
M73 Q2 S36
G1 X5.0 E29.0 F1800.0
G1 X55.0 E8.0 F2000.0
G1 Z0.3 F1000.0
G92 E0.0
G1 X240.0 E25.0 F2200.0
G1 Y-2.0 F1000.0
G1 X55.0 E25 F1400.0
G1 Z0.20 F1000.0
G1 X5.0 E4.0 F1000.0
G92 E0.0


M221 S95
G92 E0.0

; Don't change E values below. Excessive value can damage the printer.
M907 E430 ; set extruder motor current
G21 ; set units to millimeters
G90 ; use absolute coordinates
M83 ; use relative distances for extrusion
T3
M900 K0.08 ; Filament gcode LA 1.5
M900 K45 ; Filament gcode LA 1.0
G1 Z0.200 F10800.000
;LAYER_CHANGE
;Z:0.2
;HEIGHT:0.2
;BEFORE_LAYER_CHANGE
G92 E0.0
;0.2


G1 E-1.40000 F2100.000
G1 Z0.400 F10800.000
;AFTER_LAYER_CHANGE
;0.2
G1 E-1.60000 F2100.000
G1 X158.000 Y113.020 F10800.000
M73 P3 R36
M73 Q3 S36
G1 Z0.200
G1 E3.00000 F2100.000
;HEIGHT:0.200000
;TYPE:Wipe tower
;WIDTH:0.500000
;-------------------------------------
; CP WIPE TOWER FIRST LAYER BRIM START
G1  X158.000 Y128.380  E0.8757 F2400
G1  X155.457 Y128.837   F7000
G1  Y112.563  E0.6804 F2100
M73 P3 R35
G1  X94.543  E2.5466
G1  Y128.837  E0.6804
G1  X155.457  E2.5466
G1  X155.914 Y129.294   F7000
G1  Y112.106  E0.7186 F2100
G1  X94.086  E2.5849
G1  Y129.294  E0.7186
G1  X155.914  E2.5849
G1  X156.371 Y129.751   F7000
G1  Y111.649  E0.7568 F2100
G1  X93.629  E2.6231
G1  Y129.751  E0.7568
G1  X156.371  E2.6231
G1  X156.828 Y130.208   F7000
G1  Y111.192  E0.7950 F2100
M73 Q3 S35
G1  X93.172  E2.6613
G1  Y130.208  E0.7950
G1  X156.828  E2.6613
; CP WIPE TOWER FIRST LAYER BRIM END
;-----------------------------------

;WIPE_START
G1 F8640.000
G1 X156.371 Y129.751 E-0.14926
G1 X151.258 Y129.751 E-1.18074
;WIPE_END
G1 E-0.07000 F2100.000
G1 Z0.400 F10800.000
G1 X158.882 Y130.644
G1 Z0.200
G1 E1.40000 F2100.000
M204 S1000
;TYPE:Skirt
;WIDTH:0.42
;HEIGHT:0.2
G1 F1200.000
G1 X158.627 Y131.221 E0.01977
G1 X158.254 Y131.686 E0.01870
G1 X157.774 Y132.046 E0.01882
G1 X157.222 Y132.273 E0.01870
G1 X156.628 Y132.356 E0.01882
G1 X93.389 Y132.356 E1.98281
M73 P4 R35
M73 Q4 S35
G1 X92.750 Y132.266 E0.02024
G1 X92.159 Y132.006 E0.02024
G1 X91.701 Y131.642 E0.01835
G1 X91.346 Y131.176 E0.01835
G1 X91.116 Y130.638 E0.01835
G1 X91.025 Y130.064 E0.01823
G1 X91.024 Y111.378 E0.58590
G1 X91.118 Y110.755 E0.01977
G1 X91.373 Y110.178 E0.01977
G1 X113.905 Y83.407 E1.09711
G1 X114.974 Y82.264 E0.04909
G1 X116.128 Y81.269 E0.04776
G1 X117.180 Y80.528 E0.04035
G1 X118.349 Y79.852 E0.04234
G1 X119.732 Y79.226 E0.04761
G1 X120.954 Y78.811 E0.04046
G1 X122.265 Y78.495 E0.04228
G1 X123.523 Y78.310 E0.03988
G1 X125.049 Y78.234 E0.04788
G1 X126.387 Y78.302 E0.04201
G1 X127.659 Y78.480 E0.04027
G1 X129.137 Y78.837 E0.04767
G1 X130.355 Y79.262 E0.04044
G1 X131.583 Y79.816 E0.04225
G1 X132.897 Y80.576 E0.04761
G1 X133.949 Y81.329 E0.04054
G1 X134.960 Y82.203 E0.04191
G1 X136.035 Y83.336 E0.04897
G1 X158.608 Y110.149 E1.09896
G1 X158.882 Y110.754 E0.02083
G1 X158.977 Y111.416 E0.02095
G1 X158.976 Y130.021 E0.58337
G1 X158.891 Y130.585 E0.01789
; printing object knob-pointer v7.stl id:0 copy 0
;WIPE_START
G1 F8640.000
G1 X158.627 Y131.221 E-0.15898
G1 X158.254 Y131.686 E-0.13772
G1 X157.774 Y132.046 E-0.13859
G1 X157.222 Y132.273 E-0.13772
G1 X156.628 Y132.356 E-0.13859
G1 X153.949 Y132.356 E-0.61840
;WIPE_END
G1 E-0.07000 F2100.000
G1 Z0.400 F10800.000
G1 X125.000 Y90.732
G1 Z0.200
G1 E1.40000 F2100.000
;TYPE:External perimeter
G1 F1200.000
G1 X122.924 Y90.732 E0.06509
G1 X122.724 Y90.698 E0.00635
G1 X122.563 Y90.609 E0.00579
G1 X122.436 Y90.466 E0.00598
G1 X122.388 Y90.365 E0.00350
G1 X122.356 Y90.171 E0.00617
G1 X122.370 Y90.054 E0.00369
G1 X125.000 Y82.677 E0.24557
G1 X127.630 Y90.054 E0.24556
G1 X127.644 Y90.177 E0.00388
G1 X127.631 Y90.300 E0.00388
G1 X127.591 Y90.417 E0.00388
G1 X127.525 Y90.522 E0.00388
G1 X127.438 Y90.610 E0.00388
G1 X127.333 Y90.676 E0.00388
G1 X127.217 Y90.717 E0.00388
G1 X127.082 Y90.732 E0.00425
G1 X125.060 Y90.732 E0.06339
;WIPE_START
G1 F8640.000
G1 X122.924 Y90.732 E-0.49320
G1 X122.724 Y90.698 E-0.04677
G1 X122.563 Y90.609 E-0.04261
G1 X122.436 Y90.466 E-0.04401
G1 X122.388 Y90.365 E-0.02579
G1 X122.356 Y90.171 E-0.04540
G1 X122.370 Y90.054 E-0.02720
G1 X123.250 Y87.586 E-0.60503
;WIPE_END
G1 E-0.07000 F2100.000
G1 Z0.400 F10800.000
G1 X125.430 Y84.217
G1 Z0.200
G1 E1.40000 F2100.000
;TYPE:Solid infill
;WIDTH:0.433945
G1 F1200.000
G1 X124.930 Y83.717 E0.02300
G1 X124.784 Y84.124 E0.01407
G1 X125.457 Y84.797 E0.03092
G1 X125.764 Y85.657 E0.02970
G1 X124.639 Y84.532 E0.05173
G1 X124.494 Y84.940 E0.01407
G1 X126.071 Y86.517 E0.07251
G1 X126.376 Y87.375 E0.02963
G1 X124.348 Y85.347 E0.09324
G1 X124.203 Y85.755 E0.01407
G1 X126.682 Y88.234 E0.11397
G1 X126.987 Y89.092 E0.02963
G1 X124.058 Y86.163 E0.13470
G1 X123.912 Y86.570 E0.01407
G1 X127.293 Y89.951 E0.15543
G1 X127.353 Y90.119 E0.00582
G1 X127.360 Y90.179 E0.00195
G1 X127.334 Y90.295 E0.00386
G1 X127.260 Y90.388 E0.00386
G1 X127.209 Y90.420 E0.00196
G1 X123.767 Y86.978 E0.15827
G1 X123.622 Y87.386 E0.01407
G1 X126.686 Y90.449 E0.14088
G1 X126.133 Y90.449 E0.01798
G1 X123.476 Y87.793 E0.12213
G1 X123.331 Y88.201 E0.01407
G1 X125.580 Y90.449 E0.10339
G1 X125.027 Y90.449 E0.01798
G1 X123.186 Y88.609 E0.08464
G1 X123.040 Y89.016 E0.01407
G1 X124.474 Y90.449 E0.06590
G1 X123.921 Y90.449 E0.01798
G1 X122.895 Y89.424 E0.04715
G1 X122.750 Y89.832 E0.01407
G1 X123.368 Y90.449 E0.02841
G1 X122.948 Y90.449 E0.01364
G1 X122.819 Y90.428 E0.00424
G1 X122.759 Y90.394 E0.00223
G1 X122.477 Y90.112 E0.01297
; stop printing object knob-pointer v7.stl id:0 copy 0
;WIPE_START
G1 F8640.000
G1 X122.759 Y90.394 E-0.09214
G1 X122.819 Y90.428 E-0.01585
G1 X122.948 Y90.449 E-0.03011
G1 X123.368 Y90.449 E-0.09690
G1 X122.750 Y89.832 E-0.20174
G1 X122.895 Y89.424 E-0.09993
G1 X123.921 Y90.449 E-0.33486
G1 X124.474 Y90.449 E-0.12769
G1 X123.040 Y89.016 E-0.46798
G1 X123.186 Y88.609 E-0.09993
G1 X125.027 Y90.449 E-0.60110
G1 X125.580 Y90.449 E-0.12769
G1 X123.883 Y88.753 E-0.55407
;WIPE_END
G1 E-0.15000 F2100.000
G1 Z0.400 F10800.000
G1 X154.750 Y128.130
G1 Z0.200
G1 E3.00000 F2100.000
;HEIGHT:0.200000
;TYPE:Wipe tower
;WIDTH:0.500000
;--------------------
; CP TOOLCHANGE START
; toolchange #1
; material : PETG -> PETG
;--------------------
M220 B
M220 S100
; CP TOOLCHANGE UNLOAD
;WIDTH:0.600000
G1  X154.250 Y127.710  
M900 K0
G1 F2536
G1  X143.682  E0.4895
G1 F2554
G1  X133.042  E0.4929
G1 F2571
G1  X122.329  E0.4962
G1 F2588
G1  X111.545  E0.4996
G1 F2606
G1  X100.687  E0.5029
G1 F2623
G1  X95.750  E0.2287
G1  Y126.870  F7200
G1 F2623
G1  X101.742  E0.2776
G1 F2641
G1  X112.745  E0.5096
G1 F2693
G1  X123.964  E0.5197
G1 F2832
G1  X135.762  E0.5465
G1 F3057
G1  X148.501  E0.5901
G1 F3387
G1  X154.250  E0.2663
G1  Y126.030  F7200
G1 F3387
G1  X145.884  E0.3875
G1 F3804
G1  X130.033  E0.7343
G1 F4221
G1  X112.444  E0.8147
G1 F4517
G1  X95.750  E0.7733
G1  Y125.190  F7200
G1 F4517
G1  X97.876  E0.0985
;WIDTH:0.500000
G1 E-15.0000 F7200
G1 E-24.5000 F1200
G1 E-7.0000 F600
G1 E-3.5000 F360
M104 S230
G1  Y124.350 
G1  X154.250  E20.0000 F338
M73 P5 R35
M73 Q5 S35
G1  X97.876  E-20.0000 F169
M73 P6 R34
M73 Q6 S35
G1 E-35.0000 F2000
G1  Y124.520  F2400
G4 S0
; Filament-specific end gcode

T4

G1  X97.876 Y124.520  
M900 K0.08 ; Filament gcode LA 1.5
M900 K45 ; Filament gcode LA 1.0

G4 S0
; CP TOOLCHANGE LOAD
G1 E12.0000 F1140
M73 Q6 S34
G1  X154.375  E42.0000 F1130
G1  X97.876  E6.0000 F791
G1  Y125.020 
; CP TOOLCHANGE WIPE
G1  X154.000  E2.5170 F800
G1  X154.750 Y124.520   E0.0404
G1  X96.000  E2.6348 F900
M73 P7 R34
M73 Q7 S34
G1  X95.250 Y124.020   E0.0404
G1  X154.000  E2.6348 F1100
G1  Y123.520  E0.0224
G1  X96.000  E2.6012 F2100
G1  Y123.020  E0.0224
G1  X154.000  E2.6012 F2125
G1  X154.750 Y122.520   E0.0404
G1  X96.000  E2.6348 F2150
G1  X95.250 Y122.020   E0.0404
G1  X154.000  E2.6348 F2175
G1  Y121.520  E0.0224
G1  X96.000  E2.6012 F2200
G1  Y121.020  E0.0224
G1  X154.000  E2.6012 F2225
G1  X154.750 Y120.520   E0.0404
G1  X96.000  E2.6348 F2250
G1  X95.250 Y120.020   E0.0404
G1  X154.000  E2.6348 F2275
G1  Y119.520  E0.0224
G1  X96.000  E2.6012 F2300
G1  Y119.020  E0.0224
G1  X154.000  E2.6012 F2325
M73 P8 R34
G1  X154.750 Y118.520   E0.0404
M73 Q8 S34
G1  X96.000  E2.6348 F2350
G1  X95.250 Y118.020   E0.0404
G1  X154.000  E2.6348 F2375
G1  Y117.520  E0.0224
G1  X96.000  E2.6012 F2400
G1  Y117.020  E0.0224
G1  X154.000  E2.6012
G1  X154.750 Y116.520   E0.0404
G1  X96.000  E2.6348
G1  X95.250 Y116.020   E0.0404
G1  X154.000  E2.6348
G1  Y115.520  E0.0224
G1  X96.000  E2.6012
G1  Y115.020  E0.0224
G1  X154.000  E2.6012
M73 P8 R33
G1  X154.750 Y114.520   E0.0404
G1  X96.000  E2.6348
G1  X95.250 Y114.020   E0.0404
G1  X154.000  E2.6348
G1  Y113.520  E0.0224
G1  X96.000  E2.6012
G1  X95.000 
G1  Y113.020 
G1  X155.000  E2.2804
G1  Y128.380  E0.5838
G1  X95.000  E2.2804
G1  Y113.020  E0.5838
M220 R
G1 F6000
G4 S0
G92 E0
; CP TOOLCHANGE END
;------------------



; printing object knob-pointer v7.stl id:0 copy 0
;WIPE_START
G1 F8640.000
G1 X100.760 Y113.020 E-1.33000
;WIPE_END
G1 E-0.07000 F2100.000
G1 Z0.400 F10800.000
G1 X125.000 Y91.152
G1 Z0.200
G1 E1.40000 F2100.000
;TYPE:External perimeter
;WIDTH:0.42
;HEIGHT:0.2
G1 F1200.000
G1 X122.894 Y91.152 E0.06602
G1 X122.689 Y91.129 E0.00648
G1 X122.483 Y91.057 E0.00686
M73 P9 R33
G1 X122.298 Y90.940 E0.00686
G1 X122.143 Y90.785 E0.00686
G1 X122.028 Y90.599 E0.00686
G1 X121.956 Y90.393 E0.00686
G1 X121.933 Y90.175 E0.00686
G1 X121.959 Y89.958 E0.00685
G1 X125.000 Y81.427 E0.28397
G1 X128.041 Y89.958 E0.28396
M73 Q9 S34
G1 X128.068 Y90.181 E0.00704
G1 X128.015 Y90.498 E0.01009
G1 X127.861 Y90.781 E0.01009
G1 X127.698 Y90.944 E0.00723
G1 X127.417 Y91.100 E0.01009
G1 X127.111 Y91.152 E0.00971
G1 X125.060 Y91.152 E0.06432
;WIPE_START
G1 F8640.000
G1 X122.894 Y91.152 E-0.50003
G1 X122.689 Y91.129 E-0.04775
G1 X122.483 Y91.057 E-0.05050
G1 X122.298 Y90.940 E-0.05050
G1 X122.143 Y90.785 E-0.05050
G1 X122.028 Y90.599 E-0.05050
G1 X121.956 Y90.393 E-0.05050
G1 X121.933 Y90.175 E-0.05050
G1 X121.959 Y89.958 E-0.05047
G1 X122.582 Y88.209 E-0.42878
;WIPE_END
G1 E-0.07000 F2100.000
G1 Z0.400 F10800.000
G1 X125.018 Y104.087
G1 Z0.200
G1 E1.40000 F2100.000
G1 F1200.000
G1 X124.145 Y104.062 E0.02738
G1 X123.360 Y103.975 E0.02475
G1 X122.507 Y103.817 E0.02721
G1 X121.744 Y103.618 E0.02475
G1 X121.313 Y103.480 E0.01417
G1 X120.926 Y103.339 E0.01291
G1 X120.199 Y103.031 E0.02475
G1 X119.427 Y102.635 E0.02721
G1 X118.753 Y102.224 E0.02475
G1 X118.380 Y101.969 E0.01416
G1 X118.018 Y101.698 E0.01417
G1 X117.412 Y101.193 E0.02475
G1 X116.789 Y100.590 E0.02721
G1 X116.262 Y100.001 E0.02475
G1 X116.004 Y99.680 E0.01291
G1 X115.735 Y99.317 E0.01417
G1 X115.299 Y98.657 E0.02481
G1 X115.071 Y98.268 E0.01412
G1 X114.710 Y97.566 E0.02475
G1 X114.371 Y96.768 E0.02721
G1 X114.116 Y96.021 E0.02475
G1 X113.897 Y95.186 E0.02708
G1 X113.753 Y94.409 E0.02475
G1 X113.656 Y93.547 E0.02721
G1 X113.627 Y92.758 E0.02475
G1 X113.660 Y91.855 E0.02832
G1 X113.746 Y91.071 E0.02475
G1 X113.905 Y90.218 E0.02721
G1 X114.105 Y89.454 E0.02475
G1 X114.385 Y88.637 E0.02708
G1 X114.693 Y87.910 E0.02475
G1 X115.090 Y87.139 E0.02721
G1 X115.501 Y86.465 E0.02475
G1 X116.003 Y85.762 E0.02708
G1 X116.508 Y85.155 E0.02475
G1 X117.109 Y84.529 E0.02721
G1 X117.696 Y84.002 E0.02475
G1 X118.047 Y83.719 E0.01411
M73 Q9 S33
G1 X118.755 Y83.215 E0.02726
G1 X119.429 Y82.804 E0.02475
G1 X119.791 Y82.609 E0.01291
G1 X120.197 Y82.410 E0.01417
G1 X120.926 Y82.101 E0.02481
G1 X121.349 Y81.948 E0.01412
G1 X122.105 Y81.721 E0.02475
G1 X122.952 Y81.532 E0.02721
G1 X123.733 Y81.417 E0.02475
G1 X124.594 Y81.354 E0.02708
G1 X125.384 Y81.353 E0.02475
G1 X126.249 Y81.415 E0.02721
G1 X127.030 Y81.530 E0.02475
G1 X127.912 Y81.726 E0.02833
G1 X128.668 Y81.954 E0.02475
G1 X129.478 Y82.265 E0.02721
G1 X130.192 Y82.601 E0.02475
G1 X130.945 Y83.024 E0.02708
G1 X131.603 Y83.460 E0.02475
G1 X132.290 Y83.990 E0.02721
G1 X132.878 Y84.517 E0.02475
G1 X133.197 Y84.835 E0.01412
G1 X133.725 Y85.424 E0.02481
G1 X134.254 Y86.107 E0.02708
G1 X134.690 Y86.765 E0.02475
G1 X135.117 Y87.522 E0.02726
G1 X135.314 Y87.927 E0.01411
G1 X135.623 Y88.655 E0.02481
G1 X135.775 Y89.079 E0.01412
G1 X136.002 Y89.835 E0.02475
G1 X136.189 Y90.682 E0.02721
G1 X136.304 Y91.463 E0.02475
G1 X136.367 Y92.325 E0.02708
G1 X136.367 Y93.114 E0.02475
G1 X136.304 Y93.979 E0.02721
G1 X136.189 Y94.760 E0.02475
G1 X136.100 Y95.202 E0.01412
G1 X135.900 Y95.967 E0.02481
G1 X135.763 Y96.398 E0.01417
G1 X135.623 Y96.785 E0.01291
G1 X135.315 Y97.512 E0.02475
G1 X134.900 Y98.319 E0.02846
G1 X134.488 Y98.993 E0.02475
G1 X134.255 Y99.332 E0.01291
G1 X133.985 Y99.694 E0.01417
G1 X133.479 Y100.301 E0.02475
G1 X132.877 Y100.925 E0.02721
G1 X132.289 Y101.452 E0.02475
G1 X131.605 Y101.980 E0.02708
G1 X130.947 Y102.415 E0.02475
G1 X130.190 Y102.841 E0.02721
G1 X129.476 Y103.176 E0.02475
G1 X129.059 Y103.345 E0.01412
G1 X128.310 Y103.601 E0.02481
G1 X127.877 Y103.724 E0.01411
G1 X127.028 Y103.911 E0.02725
G1 X126.247 Y104.026 E0.02475
G1 X125.837 Y104.063 E0.01291
G1 X125.078 Y104.087 E0.02381
G1 X125.221 Y103.804 F10800.000
;TYPE:Solid infill
G1 F1200.000
G1 X125.069 Y103.652 E0.00674
G1 X124.917 Y103.804 E0.00674
;WIPE_START
G1 F8640.000
G1 X125.069 Y103.652 E-0.04961
G1 X125.221 Y103.804 E-0.04965
;WIPE_END
G1 E-1.30074 F2100.000
G1 Z0.400 F10800.000
G1 X126.026 Y103.762
G1 Z0.200
G1 E1.40000 F2100.000
G1 F1200.000
G1 X126.136 Y103.652 E0.00486
G1 X126.226 Y103.743 E0.00401
G1 X126.639 Y103.682 F10800.000
G1 F1200.000
G1 X126.936 Y103.386 E0.01316
G1 X126.669 Y103.119 E0.01182
G1 X126.402 Y103.386 E0.01182
G1 X126.136 Y103.119 E0.01182
G1 X126.402 Y102.852 E0.01182
G1 X126.136 Y102.586 E0.01182
G1 X125.602 Y103.119 E0.02365
G1 X125.869 Y103.386 E0.01182
G1 X125.602 Y103.652 E0.01182
G1 X124.803 Y102.852 E0.03547
G1 X125.069 Y102.586 E0.01182
G1 X125.336 Y102.852 E0.01182
G1 X125.869 Y102.319 E0.02365
G1 X125.602 Y102.052 E0.01182
G1 X125.336 Y102.319 E0.01182
G1 X125.069 Y102.052 E0.01182
G1 X125.336 Y101.786 E0.01182
G1 X125.069 Y101.519 E0.01182
G1 X124.536 Y102.052 E0.02365
G1 X124.803 Y102.319 E0.01182
G1 X124.536 Y102.586 E0.01182
G1 X124.269 Y102.319 E0.01182
G1 X123.736 Y102.852 E0.02365
G1 X124.003 Y103.119 E0.01182
G1 X124.269 Y102.852 E0.01182
