; generated by PrusaSlicer 2.3.0+linux-x64 on 2021-08-24 at 12:27:49 UTC

; 

; external perimeters extrusion width = 0.45mm
; perimeters extrusion width = 0.45mm
; infill extrusion width = 0.45mm
; solid infill extrusion width = 0.45mm
; top infill extrusion width = 0.40mm
; first layer extrusion width = 0.42mm

; external perimeters extrusion width = 0.45mm
; perimeters extrusion width = 0.45mm
; infill extrusion width = 0.45mm
; solid infill extrusion width = 0.45mm
; top infill extrusion width = 0.40mm
; first layer extrusion width = 0.42mm

M73 P0 R37
M73 Q0 S37
M201 X1000 Y1000 Z200 E8000 ; sets maximum accelerations, mm/sec^2
M203 X200 Y200 Z12 E120 ; sets maximum feedrates, mm/sec
M204 P1250 R1250 T1250 ; sets acceleration (P, T) and retract acceleration (R), mm/sec^2
M205 X8.00 Y8.00 Z0.40 E4.50 ; sets the jerk limits, mm/sec
M205 S0 T0 ; sets the minimum extruding and travel feed rate, mm/sec
M107
;TYPE:Custom
M862.3 P "MK3SMMU2S" ; printer model check
M862.1 P0.4 ; nozzle diameter check
M115 U3.9.2 ; tell printer latest fw version
G90 ; use absolute coordinates
M83 ; extruder relative mode
M104 S230 ; set extruder temp
M140 S85 ; set bed temp
M190 S85 ; wait for bed temp
M109 S230 ; wait for extruder temp
G28 W ; home all without mesh bed level
G80 ; mesh bed leveling

; Send the filament type to the MMU2.0 unit.
; E stands for extruder number, F stands for filament type (0: default; 1:flex; 2: PVA)
M403 E0 F0
M403 E1 F0
M403 E2 F0
M403 E3 F0
M403 E4 F0


;go outside print area
G1 Y-3.0 F1000.0
M73 P0 R36
G1 Z0.4 F1000.0
; select extruder
T3
; initial load
G1 X55.0 E29.0 F1073.0
M73 P2 R36
M73 Q2 S36
G1 X5.0 E29.0 F1800.0
G1 X55.0 E8.0 F2000.0
G1 Z0.3 F1000.0
G92 E0.0
G1 X240.0 E25.0 F2200.0
G1 Y-2.0 F1000.0
G1 X55.0 E25 F1400.0
G1 Z0.20 F1000.0
G1 X5.0 E4.0 F1000.0
G92 E0.0


M221 S95
G92 E0.0

; Don't change E values below. Excessive value can damage the printer.
M907 E430 ; set extruder motor current
G21 ; set units to millimeters
G90 ; use absolute coordinates
M83 ; use relative distances for extrusion
T3
M900 K0.08 ; Filament gcode LA 1.5
M900 K45 ; Filament gcode LA 1.0
G1 Z0.200 F10800.000
;LAYER_CHANGE
;Z:0.2
;HEIGHT:0.2
;BEFORE_LAYER_CHANGE
G92 E0.0
;0.2


G1 E-1.40000 F2100.000
G1 Z0.400 F10800.000
;AFTER_LAYER_CHANGE
;0.2
G1 E-1.60000 F2100.000
G1 X158.000 Y97.320 F10800.000
M73 P3 R36
M73 Q3 S36
G1 Z0.200
G1 E3.00000 F2100.000
;HEIGHT:0.200000
;TYPE:Wipe tower
;WIDTH:0.500000
;-------------------------------------
; CP WIPE TOWER FIRST LAYER BRIM START
G1  X158.000 Y112.680  E0.8757 F2400
G1  X155.457 Y113.137   F7000
G1  Y96.863  E0.6804 F2100
M73 P3 R35
G1  X94.543  E2.5466
G1  Y113.137  E0.6804
G1  X155.457  E2.5466
G1  X155.914 Y113.594   F7000
G1  Y96.406  E0.7186 F2100
G1  X94.086  E2.5849
G1  Y113.594  E0.7186
G1  X155.914  E2.5849
G1  X156.371 Y114.051   F7000
G1  Y95.949  E0.7568 F2100
G1  X93.629  E2.6231
G1  Y114.051  E0.7568
G1  X156.371  E2.6231
G1  X156.828 Y114.508   F7000
G1  Y95.492  E0.7950 F2100
G1  X93.172  E2.6613
M73 Q3 S35
G1  Y114.508  E0.7950
G1  X156.828  E2.6613
; CP WIPE TOWER FIRST LAYER BRIM END
;-----------------------------------

;WIPE_START
G1 F8640.000
G1 X156.371 Y114.051 E-0.14926
G1 X151.258 Y114.051 E-1.18074
;WIPE_END
G1 E-0.07000 F2100.000
G1 Z0.400 F10800.000
G1 X158.882 Y114.945
G1 Z0.200
G1 E1.40000 F2100.000
M204 S1000
;TYPE:Skirt
;WIDTH:0.42
;HEIGHT:0.2
G1 F1200.000
G1 X158.627 Y115.521 E0.01977
G1 X158.254 Y115.987 E0.01870
G1 X157.774 Y116.347 E0.01882
G1 X157.222 Y116.574 E0.01870
G1 X156.628 Y116.657 E0.01882
G1 X93.389 Y116.657 E1.98281
M73 P4 R35
M73 Q4 S35
G1 X92.750 Y116.566 E0.02024
G1 X92.159 Y116.307 E0.02024
G1 X91.701 Y115.942 E0.01835
G1 X91.346 Y115.477 E0.01835
G1 X91.116 Y114.939 E0.01835
G1 X91.025 Y114.365 E0.01823
G1 X91.024 Y95.678 E0.58590
G1 X91.118 Y95.055 E0.01977
G1 X91.373 Y94.479 E0.01977
G1 X113.905 Y67.708 E1.09711
G1 X114.974 Y66.565 E0.04909
G1 X116.128 Y65.570 E0.04776
G1 X117.180 Y64.829 E0.04035
G1 X118.349 Y64.152 E0.04234
G1 X119.732 Y63.527 E0.04761
G1 X120.954 Y63.112 E0.04046
G1 X122.265 Y62.796 E0.04228
G1 X123.523 Y62.610 E0.03988
G1 X125.049 Y62.535 E0.04788
G1 X126.387 Y62.603 E0.04201
G1 X127.659 Y62.781 E0.04027
G1 X129.137 Y63.138 E0.04767
G1 X130.355 Y63.562 E0.04044
G1 X131.583 Y64.117 E0.04225
G1 X132.897 Y64.877 E0.04761
G1 X133.949 Y65.630 E0.04054
G1 X134.960 Y66.503 E0.04191
G1 X136.035 Y67.637 E0.04897
G1 X158.608 Y94.449 E1.09896
G1 X158.882 Y95.055 E0.02083
G1 X158.977 Y95.716 E0.02095
G1 X158.976 Y114.322 E0.58337
G1 X158.891 Y114.886 E0.01789
; printing object knob-pointer v7.stl id:0 copy 0
;WIPE_START
G1 F8640.000
G1 X158.627 Y115.521 E-0.15898
G1 X158.254 Y115.987 E-0.13772
G1 X157.774 Y116.347 E-0.13859
G1 X157.222 Y116.574 E-0.13772
G1 X156.628 Y116.657 E-0.13859
G1 X153.949 Y116.657 E-0.61840
;WIPE_END
G1 E-0.07000 F2100.000
G1 Z0.400 F10800.000
G1 X125.000 Y75.033
G1 Z0.200
G1 E1.40000 F2100.000
;TYPE:External perimeter
G1 F1200.000
G1 X122.924 Y75.033 E0.06509
G1 X122.724 Y74.999 E0.00635
G1 X122.563 Y74.909 E0.00579
G1 X122.436 Y74.767 E0.00598
G1 X122.388 Y74.666 E0.00350
G1 X122.356 Y74.472 E0.00617
G1 X122.370 Y74.355 E0.00369
G1 X125.000 Y66.978 E0.24557
G1 X127.630 Y74.355 E0.24556
G1 X127.644 Y74.478 E0.00388
G1 X127.631 Y74.601 E0.00388
G1 X127.591 Y74.718 E0.00388
G1 X127.525 Y74.823 E0.00388
G1 X127.438 Y74.910 E0.00388
G1 X127.333 Y74.976 E0.00388
G1 X127.217 Y75.017 E0.00388
G1 X127.082 Y75.033 E0.00425
G1 X125.060 Y75.033 E0.06339
;WIPE_START
G1 F8640.000
G1 X122.924 Y75.033 E-0.49320
G1 X122.724 Y74.999 E-0.04677
G1 X122.563 Y74.909 E-0.04261
G1 X122.436 Y74.767 E-0.04401
G1 X122.388 Y74.666 E-0.02579
G1 X122.356 Y74.472 E-0.04540
G1 X122.370 Y74.355 E-0.02720
G1 X123.250 Y71.887 E-0.60503
;WIPE_END
G1 E-0.07000 F2100.000
G1 Z0.400 F10800.000
G1 X125.430 Y68.517
G1 Z0.200
G1 E1.40000 F2100.000
;TYPE:Solid infill
;WIDTH:0.433945
G1 F1200.000
G1 X124.930 Y68.017 E0.02300
G1 X124.784 Y68.425 E0.01407
G1 X125.457 Y69.097 E0.03092
G1 X125.764 Y69.958 E0.02970
G1 X124.639 Y68.833 E0.05173
G1 X124.494 Y69.240 E0.01407
G1 X126.071 Y70.817 E0.07251
G1 X126.376 Y71.676 E0.02963
G1 X124.348 Y69.648 E0.09324
G1 X124.203 Y70.055 E0.01407
G1 X126.682 Y72.534 E0.11397
G1 X126.987 Y73.393 E0.02963
G1 X124.058 Y70.463 E0.13470
G1 X123.912 Y70.871 E0.01407
G1 X127.293 Y74.251 E0.15543
G1 X127.353 Y74.420 E0.00582
G1 X127.360 Y74.479 E0.00195
G1 X127.334 Y74.595 E0.00386
G1 X127.260 Y74.688 E0.00386
G1 X127.209 Y74.720 E0.00196
G1 X123.767 Y71.278 E0.15827
G1 X123.622 Y71.686 E0.01407
G1 X126.686 Y74.750 E0.14088
G1 X126.133 Y74.750 E0.01798
G1 X123.476 Y72.094 E0.12213
G1 X123.331 Y72.501 E0.01407
G1 X125.580 Y74.750 E0.10339
G1 X125.027 Y74.750 E0.01798
G1 X123.186 Y72.909 E0.08464
G1 X123.040 Y73.317 E0.01407
G1 X124.474 Y74.750 E0.06590
G1 X123.921 Y74.750 E0.01798
G1 X122.895 Y73.724 E0.04715
G1 X122.750 Y74.132 E0.01407
G1 X123.368 Y74.750 E0.02841
G1 X122.948 Y74.750 E0.01364
G1 X122.819 Y74.728 E0.00424
G1 X122.759 Y74.695 E0.00223
G1 X122.477 Y74.413 E0.01297
; stop printing object knob-pointer v7.stl id:0 copy 0
;WIPE_START
G1 F8640.000
G1 X122.759 Y74.695 E-0.09214
G1 X122.819 Y74.728 E-0.01585
G1 X122.948 Y74.750 E-0.03011
G1 X123.368 Y74.750 E-0.09690
G1 X122.750 Y74.132 E-0.20174
G1 X122.895 Y73.724 E-0.09993
G1 X123.921 Y74.750 E-0.33486
G1 X124.474 Y74.750 E-0.12769
G1 X123.040 Y73.317 E-0.46798
G1 X123.186 Y72.909 E-0.09993
G1 X125.027 Y74.750 E-0.60110
G1 X125.580 Y74.750 E-0.12769
G1 X123.883 Y73.053 E-0.55407
;WIPE_END
G1 E-0.15000 F2100.000
G1 Z0.400 F10800.000
G1 X154.750 Y112.430
G1 Z0.200
G1 E3.00000 F2100.000
;HEIGHT:0.200000
;TYPE:Wipe tower
;WIDTH:0.500000
;--------------------
; CP TOOLCHANGE START
; toolchange #1
; material : PETG -> PETG
;--------------------
M220 B
M220 S100
; CP TOOLCHANGE UNLOAD
;WIDTH:0.600000
G1  X154.250 Y112.010  
M900 K0
G1 F2536
G1  X143.682  E0.4895
G1 F2554
G1  X133.042  E0.4929
G1 F2571
G1  X122.329  E0.4962
G1 F2588
G1  X111.545  E0.4996
G1 F2606
G1  X100.687  E0.5029
G1 F2623
G1  X95.750  E0.2287
G1  Y111.170  F7200
G1 F2623
G1  X101.742  E0.2776
G1 F2641
G1  X112.745  E0.5096
G1 F2693
G1  X123.964  E0.5197
G1 F2832
G1  X135.762  E0.5465
G1 F3057
G1  X148.501  E0.5901
G1 F3387
G1  X154.250  E0.2663
G1  Y110.330  F7200
G1 F3387
G1  X145.884  E0.3875
G1 F3804
G1  X130.033  E0.7343
G1 F4221
G1  X112.444  E0.8147
G1 F4517
G1  X95.750  E0.7733
G1  Y109.490  F7200
G1 F4517
G1  X97.876  E0.0985
;WIDTH:0.500000
G1 E-15.0000 F7200
G1 E-24.5000 F1200
G1 E-7.0000 F600
G1 E-3.5000 F360
M104 S230
G1  Y108.650 
G1  X154.250  E20.0000 F338
M73 P5 R35
M73 Q5 S35
G1  X97.876  E-20.0000 F169
M73 P6 R34
M73 Q6 S35
G1 E-35.0000 F2000
G1  Y108.820  F2400
G4 S0
; Filament-specific end gcode

T4

G1  X97.876 Y108.820  
M900 K0.08 ; Filament gcode LA 1.5
M900 K45 ; Filament gcode LA 1.0

G4 S0
; CP TOOLCHANGE LOAD
G1 E12.0000 F1140
G1  X154.375  E42.0000 F1130
M73 Q6 S34
G1  X97.876  E6.0000 F791
G1  Y109.320 
; CP TOOLCHANGE WIPE
G1  X154.000  E2.5170 F800
G1  X154.750 Y108.820   E0.0404
G1  X96.000  E2.6348 F900
M73 P7 R34
M73 Q7 S34
G1  X95.250 Y108.320   E0.0404
G1  X154.000  E2.6348 F1100
G1  Y107.820  E0.0224
G1  X96.000  E2.6012 F2100
G1  Y107.320  E0.0224
G1  X154.000  E2.6012 F2125
G1  X154.750 Y106.820   E0.0404
G1  X96.000  E2.6348 F2150
G1  X95.250 Y106.320   E0.0404
G1  X154.000  E2.6348 F2175
G1  Y105.820  E0.0224
G1  X96.000  E2.6012 F2200
G1  Y105.320  E0.0224
G1  X154.000  E2.6012 F2225
G1  X154.750 Y104.820   E0.0404
G1  X96.000  E2.6348 F2250
G1  X95.250 Y104.320   E0.0404
G1  X154.000  E2.6348 F2275
G1  Y103.820  E0.0224
G1  X96.000  E2.6012 F2300
G1  Y103.320  E0.0224
G1  X154.000  E2.6012 F2325
M73 P8 R34
G1  X154.750 Y102.820   E0.0404
G1  X96.000  E2.6348 F2350
M73 Q8 S34
G1  X95.250 Y102.320   E0.0404
G1  X154.000  E2.6348 F2375
G1  Y101.820  E0.0224
G1  X96.000  E2.6012 F2400
G1  Y101.320  E0.0224
G1  X154.000  E2.6012
G1  X154.750 Y100.820   E0.0404
G1  X96.000  E2.6348
G1  X95.250 Y100.320   E0.0404
G1  X154.000  E2.6348
G1  Y99.820  E0.0224
G1  X96.000  E2.6012
G1  Y99.320  E0.0224
G1  X154.000  E2.6012
M73 P8 R33
G1  X154.750 Y98.820   E0.0404
G1  X96.000  E2.6348
G1  X95.250 Y98.320   E0.0404
G1  X154.000  E2.6348
G1  Y97.820  E0.0224
G1  X96.000  E2.6012
G1  X95.000 
G1  Y97.320 
G1  X155.000  E2.2804
G1  Y112.680  E0.5838
G1  X95.000  E2.2804
G1  Y97.320  E0.5838
M220 R
G1 F6000
G4 S0
G92 E0
; CP TOOLCHANGE END
;------------------



; printing object knob-pointer v7.stl id:0 copy 0
;WIPE_START
G1 F8640.000
G1 X100.760 Y97.320 E-1.33000
;WIPE_END
G1 E-0.07000 F2100.000
G1 Z0.400 F10800.000
G1 X125.000 Y75.453
G1 Z0.200
G1 E1.40000 F2100.000
;TYPE:External perimeter
;WIDTH:0.42
;HEIGHT:0.2
G1 F1200.000
G1 X122.894 Y75.453 E0.06602
G1 X122.689 Y75.429 E0.00648
G1 X122.483 Y75.357 E0.00686
G1 X122.298 Y75.240 E0.00686
G1 X122.143 Y75.085 E0.00686
M73 P9 R33
G1 X122.028 Y74.900 E0.00686
G1 X121.956 Y74.693 E0.00686
G1 X121.933 Y74.476 E0.00686
G1 X121.959 Y74.259 E0.00685
G1 X125.000 Y65.728 E0.28397
G1 X128.041 Y74.258 E0.28396
M73 Q9 S34
G1 X128.068 Y74.482 E0.00704
G1 X128.016 Y74.793 E0.00990
G1 X127.917 Y75.001 E0.00723
G1 X127.703 Y75.242 E0.01009
G1 X127.417 Y75.401 E0.01028
G1 X127.111 Y75.453 E0.00971
G1 X125.060 Y75.453 E0.06432
;WIPE_START
G1 F8640.000
G1 X122.894 Y75.453 E-0.50003
G1 X122.689 Y75.429 E-0.04775
G1 X122.483 Y75.357 E-0.05050
G1 X122.298 Y75.240 E-0.05050
G1 X122.143 Y75.085 E-0.05050
G1 X122.028 Y74.900 E-0.05050
G1 X121.956 Y74.693 E-0.05050
G1 X121.933 Y74.476 E-0.05050
G1 X121.959 Y74.259 E-0.05047
G1 X122.582 Y72.509 E-0.42878
;WIPE_END
G1 E-0.07000 F2100.000
G1 Z0.400 F10800.000
G1 X125.018 Y88.388
G1 Z0.200
G1 E1.40000 F2100.000
G1 F1200.000
G1 X124.145 Y88.362 E0.02738
G1 X123.360 Y88.276 E0.02475
G1 X122.507 Y88.118 E0.02721
G1 X121.744 Y87.918 E0.02475
G1 X121.313 Y87.780 E0.01417
G1 X120.926 Y87.640 E0.01291
G1 X120.199 Y87.331 E0.02475
G1 X119.427 Y86.936 E0.02721
G1 X118.753 Y86.525 E0.02475
G1 X118.380 Y86.270 E0.01416
G1 X118.018 Y85.999 E0.01417
G1 X117.412 Y85.493 E0.02475
G1 X116.789 Y84.890 E0.02721
G1 X116.262 Y84.302 E0.02475
G1 X116.004 Y83.981 E0.01291
G1 X115.735 Y83.618 E0.01417
G1 X115.299 Y82.958 E0.02481
G1 X115.071 Y82.569 E0.01412
G1 X114.710 Y81.867 E0.02475
G1 X114.371 Y81.068 E0.02721
G1 X114.116 Y80.321 E0.02475
G1 X113.897 Y79.486 E0.02708
G1 X113.753 Y78.710 E0.02475
G1 X113.656 Y77.847 E0.02721
G1 X113.627 Y77.059 E0.02475
G1 X113.660 Y76.156 E0.02832
G1 X113.746 Y75.371 E0.02475
G1 X113.905 Y74.518 E0.02721
G1 X114.105 Y73.755 E0.02475
G1 X114.385 Y72.937 E0.02708
G1 X114.693 Y72.211 E0.02475
G1 X115.090 Y71.439 E0.02721
G1 X115.501 Y70.765 E0.02475
G1 X116.003 Y70.062 E0.02708
G1 X116.508 Y69.455 E0.02475
G1 X117.109 Y68.830 E0.02721
G1 X117.696 Y68.302 E0.02475
G1 X118.047 Y68.020 E0.01411
G1 X118.755 Y67.516 E0.02726
G1 X119.429 Y67.105 E0.02475
G1 X119.791 Y66.910 E0.01291
G1 X120.197 Y66.711 E0.01417
G1 X120.926 Y66.402 E0.02481
M73 Q9 S33
G1 X121.349 Y66.249 E0.01412
G1 X122.105 Y66.022 E0.02475
G1 X122.952 Y65.833 E0.02721
G1 X123.733 Y65.718 E0.02475
G1 X124.594 Y65.654 E0.02708
G1 X125.384 Y65.654 E0.02475
G1 X126.249 Y65.716 E0.02721
G1 X127.030 Y65.830 E0.02475
G1 X127.912 Y66.027 E0.02833
G1 X128.668 Y66.255 E0.02475
G1 X129.478 Y66.566 E0.02721
G1 X130.192 Y66.901 E0.02475
G1 X130.945 Y67.325 E0.02708
G1 X131.603 Y67.760 E0.02475
G1 X132.290 Y68.291 E0.02721
G1 X132.878 Y68.817 E0.02475
G1 X133.197 Y69.135 E0.01412
G1 X133.725 Y69.724 E0.02481
G1 X134.254 Y70.407 E0.02708
G1 X134.690 Y71.066 E0.02475
G1 X135.117 Y71.823 E0.02726
G1 X135.314 Y72.227 E0.01411
G1 X135.623 Y72.956 E0.02481
G1 X135.775 Y73.379 E0.01412
G1 X136.002 Y74.135 E0.02475
G1 X136.189 Y74.983 E0.02721
G1 X136.304 Y75.764 E0.02475
G1 X136.367 Y76.625 E0.02708
G1 X136.367 Y77.414 E0.02475
G1 X136.304 Y78.280 E0.02721
G1 X136.189 Y79.061 E0.02475
G1 X136.100 Y79.502 E0.01412
G1 X135.900 Y80.268 E0.02481
G1 X135.763 Y80.698 E0.01417
G1 X135.623 Y81.086 E0.01291
G1 X135.315 Y81.812 E0.02475
G1 X134.900 Y82.620 E0.02846
G1 X134.488 Y83.293 E0.02475
G1 X134.255 Y83.632 E0.01291
G1 X133.985 Y83.995 E0.01417
G1 X133.479 Y84.601 E0.02475
G1 X132.877 Y85.225 E0.02721
G1 X132.289 Y85.752 E0.02475
G1 X131.605 Y86.280 E0.02708
G1 X130.947 Y86.716 E0.02475
G1 X130.190 Y87.141 E0.02721
G1 X129.476 Y87.476 E0.02475
G1 X129.059 Y87.646 E0.01412
G1 X128.310 Y87.902 E0.02481
G1 X127.877 Y88.025 E0.01411
G1 X127.028 Y88.212 E0.02725
G1 X126.247 Y88.326 E0.02475
G1 X125.837 Y88.364 E0.01291
G1 X125.078 Y88.388 E0.02381
G1 X125.221 Y88.105 F10800.000
;TYPE:Solid infill
G1 F1200.000
G1 X125.069 Y87.953 E0.00674
G1 X124.917 Y88.105 E0.00674
;WIPE_START
G1 F8640.000
G1 X125.069 Y87.953 E-0.04961
G1 X125.221 Y88.105 E-0.04965
;WIPE_END
G1 E-1.30074 F2100.000
G1 Z0.400 F10800.000
G1 X126.026 Y88.062
G1 Z0.200
G1 E1.40000 F2100.000
G1 F1200.000
G1 X126.136 Y87.953 E0.00486
G1 X126.226 Y88.043 E0.00401
G1 X126.639 Y87.983 F10800.000
G1 F1200.000
G1 X126.936 Y87.686 E0.01316
G1 X126.669 Y87.419 E0.01182
G1 X126.402 Y87.686 E0.01182
G1 X126.136 Y87.419 E0.01182
G1 X126.402 Y87.153 E0.01182
G1 X126.136 Y86.886 E0.01182
G1 X125.602 Y87.419 E0.02365
G1 X125.869 Y87.686 E0.01182
G1 X125.602 Y87.953 E0.01182
G1 X124.803 Y87.153 E0.03547
G1 X125.069 Y86.886 E0.01182
G1 X125.336 Y87.153 E0.01182
G1 X125.869 Y86.620 E0.02365
G1 X125.602 Y86.353 E0.01182
G1 X125.336 Y86.620 E0.01182
G1 X125.069 Y86.353 E0.01182
G1 X125.336 Y86.086 E0.01182
G1 X125.069 Y85.820 E0.01182
G1 X124.536 Y86.353 E0.02365
G1 X124.803 Y86.620 E0.01182
G1 X124.536 Y86.886 E0.01182
G1 X124.269 Y86.620 E0.01182
G1 X123.736 Y87.153 E0.02365
G1 X124.003 Y87.419 E0.01182
G1 X124.269 Y87.153 E0.01182
G1 X124.803 Y87.686 E0.02365
G1 X124.536 Y87.953 E0.01182
G1 X124.269 Y87.686 E0.01182
G1 X124.003 Y87.953 E0.01182
G1 X124.125 Y88.075 E0.00544
G1 X123.526 Y88.009 F10800.000
G1 F1200.000
G1 X123.469 Y87.953 E0.00251
G1 X123.736 Y87.686 E0.01182
G1 X123.469 Y87.419 E0.01182
G1 X122.973 Y87.916 E0.02203
