; generated by PrusaSlicer 2.2.0+linux-x64 on 2020-08-05 at 23:36:00 UTC

; 

; external perimeters extrusion width = 0.45mm
; perimeters extrusion width = 0.45mm
; infill extrusion width = 0.45mm
; solid infill extrusion width = 0.45mm
; top infill extrusion width = 0.40mm
; first layer extrusion width = 0.42mm

M73 P0 R156
M73 Q0 S157
M201 X1000 Y1000 Z200 E5000 ; sets maximum accelerations, mm/sec^2
M203 X200 Y200 Z12 E120 ; sets maximum feedrates, mm/sec
M204 P1250 R1250 T1250 ; sets acceleration (P, T) and retract acceleration (R), mm/sec^2
M205 X8.00 Y8.00 Z0.40 E4.50 ; sets the jerk limits, mm/sec
M205 S0 T0 ; sets the minimum extruding and travel feed rate, mm/sec
M107
M862.3 P "MK3S" ; printer model check
M862.1 P0.4 ; nozzle diameter check
M115 U3.9.0 ; tell printer latest fw version
G90 ; use absolute coordinates
M83 ; extruder relative mode
M104 S215 ; set extruder temp
M140 S60 ; set bed temp
M190 S60 ; wait for bed temp
M109 S215 ; wait for extruder temp
G28 W ; home all without mesh bed level
G80 ; mesh bed leveling
G1 Y-3.0 F1000.0 ; go outside print area
G92 E0.0
G1 X60.0 E9.0 F1000.0 ; intro line
M73 Q0 S157
M73 P0 R156
G1 X100.0 E12.5 F1000.0 ; intro line
G92 E0.0
M221 S95
G21 ; set units to millimeters
G90 ; use absolute coordinates
M83 ; use relative distances for extrusion
M900 K0.06 ; Filament gcode LA 1.5
M900 K30 ; Filament gcode LA 1.0
;BEFORE_LAYER_CHANGE
G92 E0.0
;0.2


G1 E-0.80000 F2100.00000
G1 Z0.600 F10800.000
;AFTER_LAYER_CHANGE
;0.2
G1 X30.344 Y52.460
G1 Z0.200
G1 E0.80000 F2100.00000
M204 S1000
G1 F1200.000
G1 X31.374 Y52.048 E0.03480
G1 X32.087 Y51.887 E0.02290
G1 X32.917 Y51.823 E0.02613
G1 X217.079 Y51.823 E5.77425
G1 X217.989 Y51.899 E0.02862
G1 X218.966 Y52.159 E0.03171
G1 X220.212 Y52.798 E0.04391
G1 X220.993 Y53.441 E0.03171
G1 X221.589 Y54.143 E0.02886
G1 X222.094 Y55.010 E0.03147
G1 X222.528 Y56.346 E0.04403
G1 X222.626 Y57.318 E0.03064
G1 X222.626 Y152.694 E2.99044
G1 X222.558 Y153.501 E0.02541
G1 X222.362 Y154.319 E0.02636
G1 X222.039 Y155.111 E0.02684
G1 X221.670 Y155.733 E0.02266
G1 X220.907 Y156.640 E0.03717
G1 X220.329 Y157.123 E0.02362
G1 X219.656 Y157.540 E0.02481
G1 X218.626 Y157.952 E0.03480
G1 X217.913 Y158.113 E0.02290
G1 X217.083 Y158.177 E0.02613
G1 X32.895 Y158.177 E5.77509
G1 X32.075 Y158.112 E0.02577
G1 X31.341 Y157.944 E0.02362
G1 X30.248 Y157.485 E0.03717
G1 X29.631 Y157.094 E0.02290
G1 X28.983 Y156.535 E0.02684
G1 X28.438 Y155.895 E0.02636
G1 X28.010 Y155.206 E0.02541
G1 X27.599 Y154.180 E0.03468
G1 X27.437 Y153.467 E0.02290
G1 X27.373 Y152.640 E0.02600
G1 X27.374 Y57.322 E2.98865
G1 X27.439 Y56.522 E0.02517
G1 X27.607 Y55.787 E0.02362
G1 X28.067 Y54.695 E0.03717
G1 X28.456 Y54.081 E0.02278
G1 X29.015 Y53.433 E0.02684
G1 X29.655 Y52.888 E0.02636
G1 X30.293 Y52.492 E0.02353
G1 F8640.000
G1 X31.374 Y52.048 E-0.26990
G1 X32.087 Y51.887 E-0.16866
G1 X32.917 Y51.823 E-0.19240
G1 X33.476 Y51.823 E-0.12904
G1 E-0.04000 F2100.00000
G1 Z0.800 F10800.000
G1 X131.433 Y130.849
G1 Z0.200
G1 E0.80000 F2100.00000
G1 F1200.000
G1 X131.749 Y130.533 E0.01404
G1 X132.116 Y130.276 E0.01404
G1 X132.522 Y130.087 E0.01404
G1 X132.954 Y129.971 E0.01404
G1 X133.369 Y129.935 E0.01305
G1 X133.842 Y129.970 E0.01489
G1 X134.278 Y130.087 E0.01416
G1 X134.684 Y130.276 E0.01404
G1 X135.051 Y130.533 E0.01404
G1 X135.367 Y130.849 E0.01404
G1 X135.624 Y131.216 E0.01404
G1 X135.813 Y131.622 E0.01404
G1 X135.929 Y132.054 E0.01404
G1 X135.968 Y132.500 E0.01404
G1 X135.929 Y132.946 E0.01404
G1 X135.813 Y133.378 E0.01404
G1 X135.624 Y133.784 E0.01404
G1 X135.367 Y134.151 E0.01404
G1 X135.051 Y134.467 E0.01404
G1 X134.684 Y134.724 E0.01404
G1 X134.278 Y134.913 E0.01404
G1 X133.846 Y135.029 E0.01404
G1 X133.400 Y135.068 E0.01404
G1 X132.954 Y135.029 E0.01404
G1 X132.522 Y134.913 E0.01404
G1 X132.116 Y134.724 E0.01404
G1 X131.749 Y134.467 E0.01404
G1 X131.433 Y134.151 E0.01404
G1 X131.176 Y133.784 E0.01404
G1 X130.987 Y133.378 E0.01404
G1 X130.871 Y132.946 E0.01404
G1 X130.832 Y132.500 E0.01404
G1 X130.871 Y132.054 E0.01404
G1 X130.987 Y131.622 E0.01404
G1 X131.176 Y131.216 E0.01404
G1 X131.398 Y130.898 E0.01215
G1 X131.707 Y131.115 F10800.000
G1 F1200.000
G1 X131.993 Y130.823 E0.01280
G1 X132.305 Y130.604 E0.01197
G1 X132.651 Y130.442 E0.01197
G1 X133.020 Y130.344 E0.01197
G1 X133.371 Y130.313 E0.01106
G1 X133.779 Y130.343 E0.01282
G1 X134.149 Y130.442 E0.01201
G1 X134.495 Y130.604 E0.01197
G1 X134.807 Y130.823 E0.01197
G1 X135.077 Y131.093 E0.01197
G1 X135.296 Y131.405 E0.01197
G1 X135.458 Y131.751 E0.01197
G1 X135.556 Y132.120 E0.01197
G1 X135.590 Y132.500 E0.01197
G1 X135.556 Y132.880 E0.01197
G1 X135.458 Y133.249 E0.01197
G1 X135.296 Y133.595 E0.01197
G1 X135.077 Y133.907 E0.01197
G1 X134.807 Y134.177 E0.01197
G1 X134.495 Y134.396 E0.01197
G1 X134.149 Y134.558 E0.01197
G1 X133.780 Y134.656 E0.01197
G1 X133.400 Y134.690 E0.01197
G1 X133.020 Y134.656 E0.01197
G1 X132.651 Y134.558 E0.01197
G1 X132.305 Y134.396 E0.01197
G1 X131.993 Y134.177 E0.01197
G1 X131.723 Y133.907 E0.01197
G1 X131.504 Y133.595 E0.01197
G1 X131.342 Y133.249 E0.01197
G1 X131.244 Y132.880 E0.01197
G1 X131.210 Y132.500 E0.01197
G1 X131.244 Y132.120 E0.01197
G1 X131.342 Y131.751 E0.01197
G1 X131.504 Y131.405 E0.01197
G1 X131.673 Y131.164 E0.00924
G1 X131.567 Y130.740 F10800.000
G1 F8640.000
G1 X131.993 Y130.823 E-0.10797
G1 X132.305 Y130.604 E-0.08813
G1 X132.651 Y130.442 E-0.08813
G1 X133.020 Y130.344 E-0.08813
G1 X133.371 Y130.313 E-0.08142
G1 X133.779 Y130.343 E-0.09443
G1 X134.149 Y130.442 E-0.08844
G1 X134.495 Y130.604 E-0.08813
G1 X134.620 Y130.691 E-0.03522
G1 E-0.04000 F2100.00000
G1 Z0.800 F10800.000
G1 X169.350 Y112.137
G1 Z0.200
G1 E0.80000 F2100.00000
G1 F1200.000
G1 X169.350 Y97.863 E0.44756
G1 X186.800 Y97.863 E0.54711
G1 X186.800 Y112.137 E0.44756
G1 X169.410 Y112.137 E0.54522
G1 X169.727 Y111.760 F10800.000
G1 F1200.000
G1 X169.727 Y98.240 E0.42391
G1 X186.422 Y98.240 E0.52346
G1 X186.422 Y111.760 E0.42391
G1 X169.787 Y111.760 E0.52158
G1 X169.338 Y111.850 F10800.000
G1 F8640.000
G1 X169.773 Y108.469 E-0.76000
G1 E-0.04000 F2100.00000
G1 Z0.800 F10800.000
G1 X135.367 Y79.151
G1 Z0.200
G1 E0.80000 F2100.00000
G1 F1200.000
G1 X135.051 Y79.467 E0.01404
G1 X134.684 Y79.724 E0.01404
G1 X134.278 Y79.913 E0.01404
G1 X133.846 Y80.029 E0.01404
G1 X133.400 Y80.068 E0.01404
G1 X132.954 Y80.029 E0.01404
G1 X132.522 Y79.913 E0.01404
G1 X132.116 Y79.724 E0.01404
G1 X131.749 Y79.467 E0.01404
G1 X131.433 Y79.151 E0.01404
G1 X131.176 Y78.784 E0.01404
G1 X130.987 Y78.378 E0.01404
G1 X130.871 Y77.946 E0.01404
G1 X130.832 Y77.500 E0.01404
G1 X130.871 Y77.054 E0.01404
G1 X130.987 Y76.622 E0.01404
G1 X131.176 Y76.216 E0.01404
G1 X131.433 Y75.849 E0.01404
G1 X131.749 Y75.533 E0.01404
G1 X132.116 Y75.276 E0.01404
G1 X132.522 Y75.087 E0.01404
G1 X132.954 Y74.971 E0.01404
G1 X133.369 Y74.935 E0.01305
G1 X133.842 Y74.970 E0.01489
G1 X134.278 Y75.087 E0.01416
G1 X134.684 Y75.276 E0.01404
G1 X135.051 Y75.533 E0.01404
G1 X135.367 Y75.849 E0.01404
G1 X135.624 Y76.216 E0.01404
G1 X135.813 Y76.622 E0.01404
G1 X135.929 Y77.054 E0.01404
G1 X135.968 Y77.500 E0.01404
G1 X135.929 Y77.946 E0.01404
G1 X135.813 Y78.378 E0.01404
G1 X135.624 Y78.784 E0.01404
G1 X135.402 Y79.102 E0.01215
G1 X135.093 Y78.885 F10800.000
G1 F1200.000
G1 X134.807 Y79.177 E0.01280
G1 X134.495 Y79.396 E0.01197
G1 X134.149 Y79.558 E0.01197
G1 X133.780 Y79.656 E0.01197
G1 X133.400 Y79.690 E0.01197
G1 X133.020 Y79.656 E0.01197
G1 X132.651 Y79.558 E0.01197
G1 X132.305 Y79.396 E0.01197
G1 X131.993 Y79.177 E0.01197
G1 X131.723 Y78.907 E0.01197
G1 X131.504 Y78.595 E0.01197
G1 X131.342 Y78.249 E0.01197
G1 X131.244 Y77.880 E0.01197
G1 X131.210 Y77.500 E0.01197
G1 X131.244 Y77.120 E0.01197
G1 X131.342 Y76.751 E0.01197
G1 X131.504 Y76.405 E0.01197
G1 X131.723 Y76.093 E0.01197
G1 X131.993 Y75.823 E0.01197
G1 X132.305 Y75.604 E0.01197
G1 X132.651 Y75.442 E0.01197
G1 X133.020 Y75.344 E0.01197
G1 X133.371 Y75.313 E0.01106
G1 X133.779 Y75.343 E0.01282
G1 X134.149 Y75.442 E0.01201
G1 X134.495 Y75.604 E0.01197
G1 X134.807 Y75.823 E0.01197
G1 X135.077 Y76.093 E0.01197
G1 X135.296 Y76.405 E0.01197
G1 X135.458 Y76.751 E0.01197
G1 X135.556 Y77.120 E0.01197
G1 X135.590 Y77.500 E0.01197
G1 X135.556 Y77.880 E0.01197
G1 X135.458 Y78.249 E0.01197
G1 X135.296 Y78.595 E0.01197
G1 X135.127 Y78.836 E0.00924
G1 X135.233 Y79.260 F10800.000
G1 F8640.000
G1 X134.807 Y79.177 E-0.10797
G1 X134.495 Y79.396 E-0.08813
G1 X134.149 Y79.558 E-0.08813
G1 X133.780 Y79.656 E-0.08813
G1 X133.400 Y79.690 E-0.08813
G1 X133.020 Y79.656 E-0.08813
G1 X132.651 Y79.558 E-0.08813
G1 X132.305 Y79.396 E-0.08813
G1 X132.181 Y79.309 E-0.03514
G1 E-0.04000 F2100.00000
G1 Z0.800 F10800.000
G1 X116.444 Y69.975
G1 Z0.200
G1 E0.80000 F2100.00000
G1 F1200.000
G1 X116.100 Y70.570 E0.02155
G1 X115.672 Y71.108 E0.02155
G1 X115.168 Y71.575 E0.02155
G1 X114.600 Y71.963 E0.02155
G1 X113.980 Y72.261 E0.02155
G1 X113.323 Y72.463 E0.02155
G1 X112.644 Y72.566 E0.02155
G1 X111.956 Y72.566 E0.02155
G1 X111.277 Y72.463 E0.02155
G1 X110.620 Y72.261 E0.02155
G1 X110.033 Y71.978 E0.02042
G1 X109.434 Y71.577 E0.02260
G1 X108.928 Y71.108 E0.02163
G1 X108.500 Y70.570 E0.02155
G1 X108.156 Y69.975 E0.02155
G1 X107.905 Y69.335 E0.02155
G1 X107.752 Y68.665 E0.02155
G1 X107.703 Y68.015 E0.02042
G1 X107.752 Y67.296 E0.02260
G1 X107.905 Y66.624 E0.02163
G1 X108.156 Y65.984 E0.02155
G1 X108.500 Y65.389 E0.02155
G1 X108.928 Y64.851 E0.02155
G1 X109.432 Y64.384 E0.02155
G1 X110.000 Y63.996 E0.02155
G1 X110.620 Y63.698 E0.02155
G1 X111.277 Y63.496 E0.02155
G1 X111.956 Y63.393 E0.02155
G1 X112.644 Y63.393 E0.02155
G1 X113.323 Y63.496 E0.02155
G1 X113.980 Y63.698 E0.02155
G1 X114.600 Y63.996 E0.02155
G1 X115.168 Y64.384 E0.02155
G1 X115.672 Y64.851 E0.02155
G1 X116.100 Y65.389 E0.02155
G1 X116.444 Y65.984 E0.02155
G1 X116.695 Y66.624 E0.02155
G1 X116.848 Y67.294 E0.02155
G1 X116.899 Y67.980 E0.02155
G1 X116.848 Y68.665 E0.02155
G1 X116.695 Y69.335 E0.02155
G1 X116.466 Y69.919 E0.01967
G1 X116.115 Y69.781 F10800.000
G1 F1200.000
G1 X115.788 Y70.357 E0.02077
G1 X115.394 Y70.851 E0.01978
G1 X114.932 Y71.280 E0.01978
G1 X114.411 Y71.635 E0.01978
G1 X113.842 Y71.909 E0.01978
G1 X113.239 Y72.095 E0.01978
G1 X112.615 Y72.189 E0.01978
G1 X111.985 Y72.189 E0.01978
G1 X111.361 Y72.095 E0.01978
G1 X110.758 Y71.909 E0.01978
G1 X110.221 Y71.650 E0.01870
G1 X109.669 Y71.280 E0.02083
G1 X109.206 Y70.851 E0.01981
G1 X108.812 Y70.357 E0.01978
G1 X108.497 Y69.811 E0.01978
G1 X108.266 Y69.224 E0.01978
G1 X108.126 Y68.609 E0.01978
G1 X108.081 Y68.014 E0.01870
G1 X108.126 Y67.351 E0.02083
G1 X108.266 Y66.735 E0.01981
G1 X108.497 Y66.148 E0.01978
G1 X108.812 Y65.602 E0.01978
G1 X109.206 Y65.108 E0.01978
G1 X109.668 Y64.679 E0.01978
G1 X110.189 Y64.324 E0.01978
G1 X110.758 Y64.050 E0.01978
G1 X111.361 Y63.864 E0.01978
G1 X111.985 Y63.770 E0.01978
G1 X112.615 Y63.770 E0.01978
G1 X113.239 Y63.864 E0.01978
G1 X113.842 Y64.050 E0.01978
G1 X114.411 Y64.324 E0.01978
G1 X114.932 Y64.679 E0.01978
G1 X115.394 Y65.108 E0.01978
G1 X115.788 Y65.602 E0.01978
G1 X116.103 Y66.148 E0.01978
G1 X116.334 Y66.735 E0.01978
G1 X116.474 Y67.350 E0.01978
G1 X116.521 Y67.980 E0.01978
G1 X116.474 Y68.609 E0.01978
G1 X116.334 Y69.224 E0.01978
G1 X116.137 Y69.726 E0.01690
G1 X116.342 Y70.111 F10800.000
G1 F8640.000
G1 X115.788 Y70.357 E-0.16665
G1 X115.394 Y70.851 E-0.14567
G1 X114.932 Y71.280 E-0.14568
G1 X114.411 Y71.635 E-0.14568
G1 X113.842 Y71.909 E-0.14568
G1 X113.798 Y71.922 E-0.01065
G1 E-0.04000 F2100.00000
G1 Z0.800 F10800.000
G1 X99.915 Y68.665
G1 Z0.200
G1 E0.80000 F2100.00000
G1 F1200.000
G1 X99.762 Y69.335 E0.02155
G1 X99.510 Y69.975 E0.02155
G1 X99.167 Y70.570 E0.02155
G1 X98.738 Y71.108 E0.02155
G1 X98.234 Y71.575 E0.02155
G1 X97.666 Y71.963 E0.02155
G1 X97.047 Y72.261 E0.02155
G1 X96.390 Y72.463 E0.02155
G1 X95.710 Y72.566 E0.02155
G1 X95.023 Y72.566 E0.02155
G1 X94.343 Y72.463 E0.02155
G1 X93.686 Y72.261 E0.02155
G1 X93.099 Y71.978 E0.02042
G1 X92.501 Y71.577 E0.02260
G1 X91.995 Y71.108 E0.02163
G1 X91.567 Y70.570 E0.02155
G1 X91.223 Y69.975 E0.02155
G1 X90.972 Y69.335 E0.02155
G1 X90.819 Y68.665 E0.02155
G1 X90.770 Y68.015 E0.02042
G1 X90.818 Y67.296 E0.02260
G1 X90.972 Y66.624 E0.02163
G1 X91.223 Y65.984 E0.02155
G1 X91.567 Y65.389 E0.02155
G1 X91.995 Y64.851 E0.02155
G1 X92.499 Y64.384 E0.02155
G1 X93.067 Y63.996 E0.02155
G1 X93.686 Y63.698 E0.02155
G1 X94.343 Y63.496 E0.02155
G1 X95.023 Y63.393 E0.02155
G1 X95.710 Y63.393 E0.02155
G1 X96.390 Y63.496 E0.02155
G1 X97.047 Y63.698 E0.02155
G1 X97.348 Y63.843 E0.01048
G1 X97.666 Y63.996 E0.01107
G1 X98.234 Y64.384 E0.02155
G1 X98.738 Y64.851 E0.02155
G1 X99.167 Y65.389 E0.02155
G1 X99.334 Y65.678 E0.01048
G1 X99.510 Y65.984 E0.01107
G1 X99.762 Y66.624 E0.02155
G1 X99.915 Y67.294 E0.02155
G1 X99.966 Y67.980 E0.02155
G1 X99.919 Y68.605 E0.01967
G1 X99.543 Y68.577 F10800.000
G1 F1200.000
G1 X99.400 Y69.224 E0.02077
G1 X99.170 Y69.811 E0.01978
G1 X98.854 Y70.357 E0.01978
G1 X98.461 Y70.851 E0.01978
G1 X97.999 Y71.280 E0.01978
G1 X97.477 Y71.635 E0.01978
G1 X96.909 Y71.909 E0.01978
G1 X96.306 Y72.095 E0.01978
G1 X95.682 Y72.189 E0.01978
G1 X95.051 Y72.189 E0.01978
G1 X94.427 Y72.095 E0.01978
G1 X93.825 Y71.909 E0.01978
G1 X93.287 Y71.650 E0.01870
G1 X92.735 Y71.280 E0.02083
G1 X92.272 Y70.851 E0.01981
G1 X91.879 Y70.357 E0.01978
G1 X91.564 Y69.811 E0.01978
G1 X91.333 Y69.224 E0.01978
G1 X91.193 Y68.609 E0.01978
G1 X91.148 Y68.014 E0.01870
G1 X91.192 Y67.351 E0.02083
G1 X91.333 Y66.735 E0.01981
G1 X91.564 Y66.148 E0.01978
G1 X91.879 Y65.602 E0.01978
G1 X92.272 Y65.108 E0.01978
G1 X92.735 Y64.679 E0.01978
G1 X93.256 Y64.324 E0.01978
G1 X93.825 Y64.050 E0.01978
G1 X94.427 Y63.864 E0.01978
G1 X95.051 Y63.770 E0.01978
G1 X95.682 Y63.770 E0.01978
G1 X96.306 Y63.864 E0.01978
G1 X96.909 Y64.050 E0.01978
G1 X97.185 Y64.183 E0.00960
G1 X97.477 Y64.324 E0.01018
G1 X97.999 Y64.679 E0.01978
G1 X98.461 Y65.108 E0.01978
G1 X98.854 Y65.602 E0.01978
G1 X99.170 Y66.148 E0.01978
G1 X99.400 Y66.735 E0.01978
G1 X99.541 Y67.350 E0.01978
G1 X99.588 Y67.980 E0.01978
G1 X99.548 Y68.517 E0.01690
G1 X99.857 Y68.825 F10800.000
G1 F8640.000
G1 X99.400 Y69.224 E-0.16665
G1 X99.170 Y69.811 E-0.14568
G1 X98.854 Y70.357 E-0.14568
G1 X98.461 Y70.851 E-0.14567
G1 X97.999 Y71.280 E-0.14568
G1 X97.960 Y71.306 E-0.01065
G1 E-0.04000 F2100.00000
G1 Z0.800 F10800.000
G1 X83.033 Y67.980
G1 Z0.200
G1 E0.80000 F2100.00000
G1 F1200.000
G1 X82.981 Y68.665 E0.02155
G1 X82.828 Y69.335 E0.02155
G1 X82.577 Y69.975 E0.02155
G1 X82.233 Y70.570 E0.02155
G1 X81.805 Y71.108 E0.02155
G1 X81.301 Y71.575 E0.02155
G1 X80.733 Y71.963 E0.02155
G1 X80.114 Y72.261 E0.02155
G1 X79.457 Y72.463 E0.02155
G1 X78.777 Y72.566 E0.02155
G1 X78.090 Y72.566 E0.02155
G1 X77.410 Y72.463 E0.02155
G1 X76.753 Y72.261 E0.02155
G1 X76.134 Y71.963 E0.02155
G1 X75.566 Y71.575 E0.02155
G1 X75.062 Y71.108 E0.02155
G1 X74.633 Y70.570 E0.02155
G1 X74.308 Y70.006 E0.02042
G1 X74.039 Y69.337 E0.02260
G1 X73.885 Y68.665 E0.02163
G1 X73.834 Y67.980 E0.02155
G1 X73.885 Y67.294 E0.02155
G1 X74.038 Y66.624 E0.02155
G1 X74.290 Y65.984 E0.02155
G1 X74.633 Y65.389 E0.02155
G1 X75.062 Y64.851 E0.02155
G1 X75.566 Y64.384 E0.02155
G1 X76.134 Y63.996 E0.02155
G1 X76.753 Y63.698 E0.02155
G1 X77.410 Y63.496 E0.02155
G1 X78.090 Y63.393 E0.02155
G1 X78.777 Y63.393 E0.02155
G1 X79.457 Y63.496 E0.02155
G1 X80.114 Y63.698 E0.02155
G1 X80.733 Y63.996 E0.02155
G1 X81.301 Y64.384 E0.02155
G1 X81.805 Y64.851 E0.02155
G1 X82.233 Y65.389 E0.02155
G1 X82.577 Y65.984 E0.02155
G1 X82.828 Y66.624 E0.02155
G1 X82.981 Y67.294 E0.02155
G1 X83.028 Y67.920 E0.01967
G1 X82.652 Y67.948 F10800.000
G1 F1200.000
G1 X82.607 Y68.609 E0.02077
G1 X82.467 Y69.224 E0.01978
G1 X82.236 Y69.811 E0.01978
G1 X81.921 Y70.357 E0.01978
G1 X81.528 Y70.851 E0.01978
G1 X81.065 Y71.280 E0.01978
G1 X80.544 Y71.635 E0.01978
G1 X79.975 Y71.909 E0.01978
G1 X79.373 Y72.095 E0.01978
G1 X78.749 Y72.189 E0.01978
G1 X78.118 Y72.189 E0.01978
G1 X77.494 Y72.095 E0.01978
G1 X76.891 Y71.909 E0.01978
G1 X76.323 Y71.635 E0.01978
G1 X75.801 Y71.280 E0.01978
G1 X75.339 Y70.851 E0.01978
